Origami/24x24/apps/green-recorder.svg

<svg width="24" height="24" version="1" xmlns="http://www.w3.org/2000/svg">
 <rect transform="matrix(0,-1,-1,0,0,0)" x="-21" y="-18" width="16" height="12" rx="1" ry="1" style="fill:#8e8e8e"/>
 <rect transform="matrix(0,-1,-1,0,0,0)" x="-19" y="-22" width="16" height="20" rx="1" ry="1" style="fill:#4f4f4f"/>
 <rect transform="matrix(0,-1,-1,0,0,0)" x="-17" y="-20" width="12" height="16" rx="0" ry="0" style="fill:#37b368"/>
 <path d="m3 3c-0.554 0-1 0.446-1 1v0.5c0-0.554 0.446-1 1-1h18c0.554 0 1 0.446 1 1v-0.5c0-0.554-0.446-1-1-1z" style="fill:#ffffff;opacity:.1"/>
 <path d="m6 20v0.5c0 0.554 0.446 1 1 1h10c0.554 0 1-0.446 1-1v-0.5c0 0.554-0.446 1-1 1h-10c-0.554 0-1-0.446-1-1z" style="opacity:.2"/>
 <path d="m2 18v0.5c0 0.554 0.446 1 1 1h18c0.554 0 1-0.446 1-1v-0.5c0 0.554-0.446 1-1 1h-18c-0.554 0-1-0.446-1-1z" style="opacity:.2"/>
 <g transform="translate(1 -.50075)" style="opacity:.2">
  <path d="m6.5318 9.0005h5.9347c0.533 0 0.533 0.5714 0.533 0.5714v4.85685c0 0.572-0.533 0.572-0.533 0.572h-5.9331s-0.5334 0-0.5334-0.571v-4.85735s0-0.5714 0.5334-0.5714z"/>
  <path d="m15.9995 9.5005v5l-3-2.5z"/>
 </g>
 <g transform="translate(1,-1.0005)" style="fill:#ffffff">
  <path d="m6.5318 9.0005h5.9347c0.533 0 0.533 0.5714 0.533 0.5714v4.85685c0 0.572-0.533 0.572-0.533 0.572h-5.9331s-0.5334 0-0.5334-0.571v-4.85735s0-0.5714 0.5334-0.5714z"/>
  <path d="m15.9995 9.5005v5l-3-2.5z"/>
 </g>
</svg>

<svg xmlns="http://www.w3.org/2000/svg" width="24" height="24" version="1">
 <rect style="fill:#8e8e8e" width="16" height="12" x="-21" y="-18" rx="1" ry="1" transform="matrix(0,-1,-1,0,0,0)"/>
 <rect style="fill:#4f4f4f" width="16" height="20" x="-19" y="-22" rx="1" ry="1" transform="matrix(0,-1,-1,0,0,0)"/>
 <rect style="fill:#37b368" width="12" height="16" x="-17" y="-20" rx="0" ry="0" transform="matrix(0,-1,-1,0,0,0)"/>
 <path style="opacity:0.1;fill:#ffffff" d="M 3,3 C 2.446,3 2,3.446 2,4 v 0.5 c 0,-0.554 0.446,-1 1,-1 h 18 c 0.554,0 1,0.446 1,1 V 4 C 22,3.446 21.554,3 21,3 Z"/>
 <path style="opacity:0.2" d="m 6,20 v 0.5 c 0,0.554 0.446,1 1,1 h 10 c 0.554,0 1,-0.446 1,-1 V 20 c 0,0.554 -0.446,1 -1,1 H 7 C 6.446,21 6,20.554 6,20 Z"/>
 <path style="opacity:0.2" d="m 2,18 v 0.5 c 0,0.554 0.446,1 1,1 h 18 c 0.554,0 1,-0.446 1,-1 V 18 c 0,0.554 -0.446,1 -1,1 H 3 C 2.446,19 2,18.554 2,18 Z"/>
 <g style="opacity:0.2" transform="translate(1,-0.50075)">
  <path d="m 6.5318,9.0005 h 5.9347 c 0.533,0 0.533,0.5714 0.533,0.5714 v 4.85685 c 0,0.572 -0.533,0.572 -0.533,0.572 H 6.5334 c 0,0 -0.5334,0 -0.5334,-0.571 V 9.5724 c 0,0 0,-0.5714 0.5334,-0.5714 z"/>
  <path d="m 15.9995,9.5005 v 5 l -3,-2.5 z"/>
 </g>
 <g style="fill:#ffffff" transform="translate(1,-1.0005)">
  <path d="m 6.5318,9.0005 h 5.9347 c 0.533,0 0.533,0.5714 0.533,0.5714 v 4.85685 c 0,0.572 -0.533,0.572 -0.533,0.572 H 6.5334 c 0,0 -0.5334,0 -0.5334,-0.571 V 9.5724 c 0,0 0,-0.5714 0.5334,-0.5714 z"/>
  <path d="m 15.9995,9.5005 v 5 l -3,-2.5 z"/>
 </g>
</svg>
